X: 15381
T: Glaspolska
R: waltz
M: 3/4
K: Eminor
|:E4D2|E4F2|G6|B2G2B2|c2A2c2|B4G2|A4G2|F4FG|E6-|E2E2D2|
E4F2|G4F2|E4EF|D6-|D6|E4D2|E4F2|G6|c2A2c2|B4G2|
A4G2|F4FG|E6|E2C2E2|F4FA|D4F2|G6-|G6-|G6-|G6:|
|:g4f2|g4a2|g6|f4fg|e4de|f6-|f4ef|g6|
f4ge|e4d2|c6-|1 c4d2|G2B2d2|G2c2d2|G2GAc2|
B4A2|AG4G|E6-|E2E2D2|E4F2|G4F2|E4EF|D6-|D6:|
[2c2d2B2|G2B2d2|G2c2d2|G2GAc2|B4A2|
AG4G|E6|E2C2E2|F4FA|D4F2|G6-|G6-|G6-|G6||

